!!!Genre:	Freylekhs
!!!Mode:	Major (Mixolydian)
!!!Listening/dance:	dance
!!!One_Mode:	yes
**kern
*thru
*I"P1
*clefG2
*k[f#]
*G:
*M2/4
*>A
=1
8r
8dL
8g
8bJ
=2
(8bL
8dd)
(8dd
8bJ)
=3
8b
(8qdd/
8cc)
8cc
8aJ
=4
8.btL
16aJk
16bLL
16aJ
8gJ
=5
8r
8g
(16bLL
16ddJ
8ccJ)
=6
4b
(16aLL
16gJ
8aJ)
*>A1
=7
2g
=8
2gg
*>A2
=9:|!
2g
=10
4G
4r
=11||
*>B
8ccTL
8a
8a
8aJ
=12
4.a
8cc
=13
8.bL
16ak
8g
8gJ
=14
2g
=15
4.dd
8ee
=16
8.ffnL
16eeJk
16ffLL
16eeJ
8ddJ
=17
8ggL
8b
8b
8bJ
=18
4.cc
8b
=19
8ddL
16ccL
16ddJJ
8ccL
8bJ
=20
8bL
16aL
16bJJ
8aL
8gJ
=21
8r
8g
(16bLL
16ddJ
8ccJ)
=22
4b
(16aLL
16gJ
8aJ)
=23
2g
=24
4G
4r
=25||
*>C
4dd
8eeL
8ffnJ
=26
8ddL
16eeL
16ddJJ
8ccL
8bJ
=27
8r
8bL
8dd
8ccJ
=28
(8bL
16ccL
16bJJ)
8aL
8gJ
=29
4dd
8eeL
8ffnJ
=30
8ggL
8ffn
8ee
8ddJ
=31
(16cc#XLL
16eeJJ)
4.dd
=32
8ggL
(16ff#XL
16aaJJ
4gg)
=33
4dd
8eeL
8ffnJ
=34
8ddL
16eeL
16ddJJ
8ccL
8bJ
=35
8r
8bL
8dd
8ccJ
=36
8bL
16ccL
16bJJ
8aL
8gJ
=37
8r
8bL
8dd
8ccJ
=38
4b
16aLL
16gJ
8aJ
=39
2g
=40
4G
4r
==
*-
